src/images/lock.svg

<?xml version="1.0" encoding="UTF-8"?>
<svg width="80px" height="80px" viewBox="0 0 80 80" version="1.1" xmlns="http://www.w3.org/2000/svg" xmlns:xlink="http://www.w3.org/1999/xlink">
    <!-- Generator: sketchtool 53.2 (72643) - https://sketchapp.com -->
    <title>07E5935D-4597-4294-A6D1-54873E81A252</title>
    <desc>Created with sketchtool.</desc>
    <defs>
        <path d="M56.1981818,55.2436364 C56.1981818,57.2545455 54.5836364,58.8909091 52.5972727,58.8909091 L41.8990909,58.8909091 L41.8990909,53.0681818 C43.8481818,52.4418182 45.2727273,50.6145455 45.2727273,48.4372727 C45.2727273,45.7472727 43.1109091,43.5581818 40.4536364,43.5581818 C37.7963636,43.5581818 35.6336364,45.7472727 35.6336364,48.4372727 C35.6336364,50.6145455 37.0590909,52.4418182 39.0081818,53.0681818 L39.0081818,58.8909091 L28.31,58.8909091 C26.3254545,58.8909091 24.71,57.2545455 24.71,55.2436364 L24.71,39.4027273 C24.71,37.3927273 26.3254545,35.7572727 28.31,35.7572727 L52.5972727,35.7572727 C54.5836364,35.7572727 56.1981818,37.3927273 56.1981818,39.4027273 L56.1981818,55.2436364 Z M40.4536364,50.3890909 C39.3909091,50.3890909 38.5263636,49.5136364 38.5263636,48.4372727 C38.5263636,47.3609091 39.3909091,46.4845455 40.4536364,46.4845455 C41.5172727,46.4845455 42.3818182,47.3609091 42.3818182,48.4372727 C42.3818182,49.5136364 41.5172727,50.3890909 40.4536364,50.3890909 L40.4536364,50.3890909 Z M30.7654545,22.0290909 C30.7654545,20.0181818 32.3809091,18.3827273 34.3663636,18.3827273 L46.5418182,18.3827273 C48.5272727,18.3827273 50.1427273,20.0181818 50.1427273,22.0290909 L50.1427273,32.8290909 L30.7654545,32.8290909 L30.7654545,22.0290909 Z M53.0345455,32.8509091 L53.0345455,22.0290909 C53.0345455,18.4036364 50.1209091,15.4545455 46.5418182,15.4545455 L34.3663636,15.4545455 C30.7863636,15.4545455 27.8736364,18.4036364 27.8736364,22.0290909 L27.8736364,32.8509091 C24.4972727,33.08 21.8181818,35.9272727 21.8181818,39.4027273 L21.8181818,55.2436364 C21.8181818,58.8690909 24.73,61.8181818 28.31,61.8181818 L52.5972727,61.8181818 C56.1781818,61.8181818 59.0909091,58.8690909 59.0909091,55.2436364 L59.0909091,39.4027273 C59.0909091,35.9272727 56.41,33.08 53.0345455,32.8509091 L53.0345455,32.8509091 Z M40,77.2727273 C19.4145455,77.2727273 2.72727273,60.5854545 2.72727273,40 C2.72727273,19.4154545 19.4145455,2.72727273 40,2.72727273 C60.5845455,2.72727273 77.2727273,19.4154545 77.2727273,40 C77.2727273,60.5854545 60.5845455,77.2727273 40,77.2727273 L40,77.2727273 Z M40,0 C17.9081818,0 0,17.9090909 0,40 C0,62.0918182 17.9081818,80 40,80 C62.0909091,80 80,62.0918182 80,40 C80,17.9090909 62.0909091,0 40,0 L40,0 Z" id="path-1"></path>
    </defs>
    <g id="Page-1" stroke="none" stroke-width="1" fill="none" fill-rule="evenodd">
        <g id="checker_PC_en" transform="translate(-680.000000, -1116.000000)">
            <g id="02" transform="translate(0.000000, 900.000000)">
                <g id="icn/lock" transform="translate(680.000000, 216.000000)">
                    <mask id="mask-2" fill="white">
                        <use xlink:href="#path-1"></use>
                    </mask>
                    <use id="icn" fill="#FEFEFE" fill-rule="evenodd" xlink:href="#path-1"></use>
                    <g id="color/02" mask="url(#mask-2)" fill="#FFFFFF" fill-rule="evenodd">
                        <rect id="Rectangle" x="0" y="0" width="80" height="80"></rect>
                    </g>
                </g>
            </g>
        </g>
    </g>
</svg>

<svg xmlns="http://www.w3.org/2000/svg" xmlns:xlink="http://www.w3.org/1999/xlink" width="80" height="80" viewBox="0 0 80 80">
    <defs>
        <path id="a" d="M56.198 55.244c0 2.01-1.614 3.647-3.6 3.647H41.898v-5.823a4.863 4.863 0 0 0 3.374-4.63c0-2.69-2.162-4.88-4.82-4.88-2.657 0-4.82 2.19-4.82 4.88a4.864 4.864 0 0 0 3.375 4.63v5.823H28.31c-1.985 0-3.6-1.636-3.6-3.647V39.403c0-2.01 1.615-3.646 3.6-3.646h24.287c1.987 0 3.601 1.636 3.601 3.646v15.84zm-15.744-4.855c-1.063 0-1.928-.875-1.928-1.952 0-1.076.865-1.952 1.928-1.952s1.928.876 1.928 1.952c0 1.077-.865 1.952-1.928 1.952zm-9.689-28.36c0-2.01 1.616-3.646 3.601-3.646h12.176c1.985 0 3.6 1.635 3.6 3.646v10.8H30.766v-10.8zm22.27 10.822V22.029c0-3.625-2.914-6.574-6.493-6.574H34.366c-3.58 0-6.492 2.949-6.492 6.574v10.822c-3.377.229-6.056 3.076-6.056 6.552v15.84c0 3.626 2.912 6.575 6.492 6.575h24.287c3.581 0 6.494-2.949 6.494-6.574V39.403c0-3.476-2.681-6.323-6.056-6.552zM40 77.273C19.415 77.273 2.727 60.585 2.727 40 2.727 19.415 19.415 2.727 40 2.727c20.585 0 37.273 16.688 37.273 37.273 0 20.585-16.688 37.273-37.273 37.273zM40 0C17.908 0 0 17.91 0 40c0 22.092 17.908 40 40 40 22.09 0 40-17.908 40-40C80 17.91 62.09 0 40 0z"/>
    </defs>
    <g fill="none" fill-rule="evenodd">
        <path fill="#FFF" d="M0 0h80v80H0z"/>
        <mask id="b" fill="#fff">
            <use xlink:href="#a"/>
        </mask>
        <use fill="#FEFEFE" xlink:href="#a"/>
        <g fill="#FFF" mask="url(#b)">
            <path d="M0 0h80v80H0z"/>
        </g>
    </g>
</svg>
